file/tennessee-aquarium.svg

<svg clip-rule="evenodd" fill-rule="evenodd" stroke-linejoin="round" stroke-miterlimit="1.41421" viewBox="0 0 560 400" xmlns="http://www.w3.org/2000/svg"><g transform="matrix(1.96444 0 0 1.96444 -159.971 -129.819)"><path d="m174.8 109.6s9.6-8.6 24.6-13.7c16.2-5.5 40.5-7.4 63.1 6.5 0 0-9.8 3.1-31 .6 0 0-11.5-2.1-28.4 2.3 0 0-15.1 3.8-17.7 4.4.1-.1-7.5 2.7-10.6-.1z" fill="#776e64" fill-rule="nonzero"/><path d="m172.8 111.4s3.3 3.5 13.7.6c0 0 20.1-5 22.7-5.5 0 0 11.8-2.4 21.5-1.2 0 0 22.3 3.1 35-1.1 0 0 5 3.2 6.5 4.7 0 0-17.6 2.1-21.4 2.1 0 0-10.6 0-15.6 3.4 0 0-9.5 6.3-19.2 6.5 0 0-6.5.2-9.1 2.9 0 0-5.6 7-10.3 3.6 0 0-1.5-1.1-1.9-5.3 0 0-28.8.7-40.6 15.7-.1 0 4.7-13.7 18.7-26.4z" fill="#0085ca" fill-rule="nonzero"/><path d="m192.4 124.7s-26.5 1.4-37.3 15.4c0 0-7.1 8.2-6.7 19.9 0 0-.2 4.4 6 2.6 0 0 11.9-2.8 17.9-7.7.1-.1.1-.3-.2-.3l-4.9-.9s8-12.2 40.3-16.2c-.3 0-6.9-.4-6.2-7.3 0 .1-7.1 3.1-8.9-5.5z" fill="#509e2f" fill-rule="nonzero"/><path d="m284.9 122.2s-5.3-6.5-6.5-7.6c0 0-.3-.4-.9 0 0 0-2.2 1.5-6.5.8 0 0-11.4-1.5-19.7 1.2 0 0-3.3 1.1.4 3.9 0 0 5.4 3.4 6.6 3.9 0 0 3.6 2.1 9.5.3 0-.1 10.1-3.4 17.1-2.5z" fill="#9b2743" fill-rule="nonzero"/><path d="m298 154.6c1.7 1.5 1.4.9.9-1-.9-4.5-4.4-17.7-11.7-28 0 0-.3-.6-1-.7-7.6-1.2-15.8 1.5-21.6 2.7 0 0-5.4 1.4-14.2-5.4 0 0-6.4-5.1-12.1-3.2 0 0-2.6.7-8 4.2 0 0-7.4 5.2-13.3 4.8h-.1c-1.3.1-6.6-.9-7.1.9 0 0-.7 2.1 2.3 2.8 0 0 5.2 1.7 13.2 1.5 0 0 7.8.1 18.4 1 9.5.9 28 5.6 40 12.1.2 0 10.8 5.4 14.3 8.3z" fill="#a07400" fill-rule="nonzero"/><path d="m147.7 165.6s13 1.9 30.2-11.8l-5.9-1.4s17.7-18.1 74.2-11.2c0 0 19.9 3.1 20.8 7.7 0 0 .3 1.8-2.8 2.3 0 0-.4.1-.8.3-.3.3-.3 1 .9 1 0 0 3.2-.2 2.1 1.3 0 0-5 7.7-38.4 15.2 0 0-5.6 1.3-9.9 2.9-3.5 1.3-6.5 3.9-6.7 7.1 0 0-20.2-17.5-47.5-5.3 0 0-10.1 4.2-14.4 11 .2.2-2.4-12.4-1.8-19.1z" fill="#003da5" fill-rule="nonzero"/><path d="m274.5 145.2s13.6 5 25.6 14.1c0 0-8 23-25.9 22.9 0 0-.9-.2-1.9-.8 0 0-11.8-6.8-23.6-5.1 0 0-14 3.2-18.5.8 0 0-1.1-.8.8-1.5 0 0 2.3-.9 7.4-1.5 0-.2 43-6.4 36.1-28.9z" fill="#009681" fill-rule="nonzero"/><path d="m300.1 164.7s.9 5.8-.9 16.6c0 0-3.2 4.3-8.2 7.1-6.2 3.4-13.8 7.4-23.2 3.9-.3-.2-.8-.3-1.1-.6-2.1-1.2-11.2-6-20.2-3.3 0 0-19.2 5.2-25.2-3.5 0 0-2.9-4.4 3-5.9 0 0 2.2-.7 5.7.7 0 0 5.4 2 15.6-.3 0 0 11.2-3.2 20.7 2.2 0 0 6.5 4.2 11.3 3-.1 0 14-1.9 22.5-19.9z" fill="#9678d3" fill-rule="nonzero"/><path d="m200.7 175.7c-3.8-1.5-9.2-3.4-15.7-3.5-8.8-.2-22.6 3.1-30.9 11.5 0 0-2.7 2.8-2.4 4.1 0 0 .1.3.7.3 0 0 1.3.3 1 1.3 0 .2-.2.7-1 .9 0 0-1.3.3-.7 2.1.2.4.9 2 2.5 3.7 5 5.2 16.2 14.7 31.4 15.1.8 0 1.2.3.6-.9-.6-.9-1.4-2.8-3.7-6.4 0 0-7.5-11 1.9-21.8-.1.1 5.4-6.8 16.3-6.4.2.2 0 .1 0 0z" fill="#9b2743" fill-rule="nonzero"/><path d="m155.3 200.7c2.4 5.6 17.8 35.7 56.4 42.4 0 0 16.3-11.8 6.3-30.3 0 0-3.7-5.7-6.5-8.2-.6-.4-1-1.1-1.1-1.9-.2-.9.2-1.8 1.7-1.5 0 0 2.8.6 7.4 2.1 0 0 12 4.4 14-.6 0 0 .6-1-2-1.8 0 0-9.7-3.2-15.3-12.8 0 0-5.3-10.3-15-10 0 0-16.5-.8-18.6 15.3 0 0-.6 6.2 3 10.7 0 0 5.3 7.6 4.9 9.7 0 0-19 2.7-34.5-13.2-.9-.5-.8-.1-.7.1z" fill="#776e64" fill-rule="nonzero"/><path d="m227.3 229s3.8-7.9-3.8-19.8c0 0 10 3 14.4-1.2 0 0 3.9-3.1 2.3-8 0 0-1.2-3.6-5.8-4.9 0 0-5.9-2.3-6.9-3.4 0 0 8.4 2.3 20.6-.9 0 0 6.9-1.8 11.9 1 0 0 6.9 4 11.2 4.2 0 0 5.3.2 6.5 1.3 0 0 2.1 1.5.8 2.9 0 0-1.8 1.4-.6 1.7 0 0 1.5-.1 1.2 1.3 0 0-.9 3.6-15 5.3 0 0-14.9 1.5-20.1 4.4-.1.1-.2.1-.3.2-1 .3-7.1 3.1-15.4 15.4-.1-.1-.7.8-1 .5z" fill="#a07400" fill-rule="nonzero"/><path d="m298.3 185.8s-2.7 13.6-11.7 25.7c-10.9 14.6-29.4 31.5-61.2 32.5 0 0-3.8.3-2.2-1.5 0 0 .8-1 4.2-.8 0 0 3.1.2 3.1-1.3 0 0 .2-1-1.9-.8 0 0-2.3.2-2.3-.9 0 0 2.3-8.8 12.9-19.5 0 0 6.6-6.9 21.9-7.8 0 0 19.5-.9 21.1-8.7 0 0 1.5-4.8-3.2-7.5 0 .1 9.6-.2 19.3-9.4z" fill="#0085ca" fill-rule="nonzero"/><g fill="#fff"><circle cx="206.7" cy="188.1" r="2.2"/><circle cx="234" cy="233.7" r="2.2"/><circle cx="270" cy="198.8" r="1.8"/><circle cx="229.6" cy="182.7" r="1.8"/><circle cx="160.3" cy="184.1" r="1.8"/><circle cx="156.5" cy="151.2" r="2.2"/><circle cx="255" cy="148" r="2.4" transform="matrix(.1602 -.9871 .9871 .1602 68.1132 376.019)"/><circle cx="234.3" cy="127.3" r="2.1"/><circle cx="257.2" cy="117.7" r="1.3"/><circle cx="228.7" cy="109.2" r="1.7"/><circle cx="187.7" cy="104.5" r="1.3"/><circle cx="292.8" cy="159.1" r="1.5"/><circle cx="293.4" cy="163.6" r="1.5"/></g></g></svg>

<?xml version="1.0" encoding="UTF-8" standalone="no"?>
<!DOCTYPE svg PUBLIC "-//W3C//DTD SVG 1.1//EN" "http://www.w3.org/Graphics/SVG/1.1/DTD/svg11.dtd">
<svg width="100%" height="100%" viewBox="0 0 560 400" version="1.1" xmlns="http://www.w3.org/2000/svg" xmlns:xlink="http://www.w3.org/1999/xlink" xml:space="preserve" xmlns:serif="http://www.serif.com/" style="fill-rule:evenodd;clip-rule:evenodd;stroke-linejoin:round;stroke-miterlimit:1.41421;">
    <g transform="matrix(1.96444,0,0,1.96444,-159.971,-129.819)">
        <path d="M174.8,109.6C174.8,109.6 184.4,101 199.4,95.9C215.6,90.4 239.9,88.5 262.5,102.4C262.5,102.4 252.7,105.5 231.5,103C231.5,103 220,100.9 203.1,105.3C203.1,105.3 188,109.1 185.4,109.7C185.5,109.6 177.9,112.4 174.8,109.6Z" style="fill:rgb(119,110,100);fill-rule:nonzero;"/>
        <path d="M172.8,111.4C172.8,111.4 176.1,114.9 186.5,112C186.5,112 206.6,107 209.2,106.5C209.2,106.5 221,104.1 230.7,105.3C230.7,105.3 253,108.4 265.7,104.2C265.7,104.2 270.7,107.4 272.2,108.9C272.2,108.9 254.6,111 250.8,111C250.8,111 240.2,111 235.2,114.4C235.2,114.4 225.7,120.7 216,120.9C216,120.9 209.5,121.1 206.9,123.8C206.9,123.8 201.3,130.8 196.6,127.4C196.6,127.4 195.1,126.3 194.7,122.1C194.7,122.1 165.9,122.8 154.1,137.8C154,137.8 158.8,124.1 172.8,111.4Z" style="fill:rgb(0,133,202);fill-rule:nonzero;"/>
        <path d="M192.4,124.7C192.4,124.7 165.9,126.1 155.1,140.1C155.1,140.1 148,148.3 148.4,160C148.4,160 148.2,164.4 154.4,162.6C154.4,162.6 166.3,159.8 172.3,154.9C172.4,154.8 172.4,154.6 172.1,154.6L167.2,153.7C167.2,153.7 175.2,141.5 207.5,137.5C207.2,137.5 200.6,137.1 201.3,130.2C201.3,130.3 194.2,133.3 192.4,124.7Z" style="fill:rgb(80,158,47);fill-rule:nonzero;"/>
        <path d="M284.9,122.2C284.9,122.2 279.6,115.7 278.4,114.6C278.4,114.6 278.1,114.2 277.5,114.6C277.5,114.6 275.3,116.1 271,115.4C271,115.4 259.6,113.9 251.3,116.6C251.3,116.6 248,117.7 251.7,120.5C251.7,120.5 257.1,123.9 258.3,124.4C258.3,124.4 261.9,126.5 267.8,124.7C267.8,124.6 277.9,121.3 284.9,122.2Z" style="fill:rgb(155,39,67);fill-rule:nonzero;"/>
        <path d="M298,154.6C299.7,156.1 299.4,155.5 298.9,153.6C298,149.1 294.5,135.9 287.2,125.6C287.2,125.6 286.9,125 286.2,124.9C278.6,123.7 270.4,126.4 264.6,127.6C264.6,127.6 259.2,129 250.4,122.2C250.4,122.2 244,117.1 238.3,119C238.3,119 235.7,119.7 230.3,123.2C230.3,123.2 222.9,128.4 217,128L216.9,128C215.6,128.1 210.3,127.1 209.8,128.9C209.8,128.9 209.1,131 212.1,131.7C212.1,131.7 217.3,133.4 225.3,133.2C225.3,133.2 233.1,133.3 243.7,134.2C253.2,135.1 271.7,139.8 283.7,146.3C283.9,146.3 294.5,151.7 298,154.6Z" style="fill:rgb(160,116,0);fill-rule:nonzero;"/>
        <path d="M147.7,165.6C147.7,165.6 160.7,167.5 177.9,153.8L172,152.4C172,152.4 189.7,134.3 246.2,141.2C246.2,141.2 266.1,144.3 267,148.9C267,148.9 267.3,150.7 264.2,151.2C264.2,151.2 263.8,151.3 263.4,151.5C263.1,151.8 263.1,152.5 264.3,152.5C264.3,152.5 267.5,152.3 266.4,153.8C266.4,153.8 261.4,161.5 228,169C228,169 222.4,170.3 218.1,171.9C214.6,173.2 211.6,175.8 211.4,179C211.4,179 191.2,161.5 163.9,173.7C163.9,173.7 153.8,177.9 149.5,184.7C149.7,184.9 147.1,172.3 147.7,165.6Z" style="fill:rgb(0,61,165);fill-rule:nonzero;"/>
        <path d="M274.5,145.2C274.5,145.2 288.1,150.2 300.1,159.3C300.1,159.3 292.1,182.3 274.2,182.2C274.2,182.2 273.3,182 272.3,181.4C272.3,181.4 260.5,174.6 248.7,176.3C248.7,176.3 234.7,179.5 230.2,177.1C230.2,177.1 229.1,176.3 231,175.6C231,175.6 233.3,174.7 238.4,174.1C238.4,173.9 281.4,167.7 274.5,145.2Z" style="fill:rgb(0,150,129);fill-rule:nonzero;"/>
        <path d="M300.1,164.7C300.1,164.7 301,170.5 299.2,181.3C299.2,181.3 296,185.6 291,188.4C284.8,191.8 277.2,195.8 267.8,192.3C267.5,192.1 267,192 266.7,191.7C264.6,190.5 255.5,185.7 246.5,188.4C246.5,188.4 227.3,193.6 221.3,184.9C221.3,184.9 218.4,180.5 224.3,179C224.3,179 226.5,178.3 230,179.7C230,179.7 235.4,181.7 245.6,179.4C245.6,179.4 256.8,176.2 266.3,181.6C266.3,181.6 272.8,185.8 277.6,184.6C277.5,184.6 291.6,182.7 300.1,164.7Z" style="fill:rgb(150,120,211);fill-rule:nonzero;"/>
        <path d="M200.7,175.7C196.9,174.2 191.5,172.3 185,172.2C176.2,172 162.4,175.3 154.1,183.7C154.1,183.7 151.4,186.5 151.7,187.8C151.7,187.8 151.8,188.1 152.4,188.1C152.4,188.1 153.7,188.4 153.4,189.4C153.4,189.6 153.2,190.1 152.4,190.3C152.4,190.3 151.1,190.6 151.7,192.4C151.9,192.8 152.6,194.4 154.2,196.1C159.2,201.3 170.4,210.8 185.6,211.2C186.4,211.2 186.8,211.5 186.2,210.3C185.6,209.4 184.8,207.5 182.5,203.9C182.5,203.9 175,192.9 184.4,182.1C184.3,182.2 189.8,175.3 200.7,175.7C200.9,175.9 200.7,175.8 200.7,175.7Z" style="fill:rgb(155,39,67);fill-rule:nonzero;"/>
        <path d="M155.3,200.7C157.7,206.3 173.1,236.4 211.7,243.1C211.7,243.1 228,231.3 218,212.8C218,212.8 214.3,207.1 211.5,204.6C210.9,204.2 210.5,203.5 210.4,202.7C210.2,201.8 210.6,200.9 212.1,201.2C212.1,201.2 214.9,201.8 219.5,203.3C219.5,203.3 231.5,207.7 233.5,202.7C233.5,202.7 234.1,201.7 231.5,200.9C231.5,200.9 221.8,197.7 216.2,188.1C216.2,188.1 210.9,177.8 201.2,178.1C201.2,178.1 184.7,177.3 182.6,193.4C182.6,193.4 182,199.6 185.6,204.1C185.6,204.1 190.9,211.7 190.5,213.8C190.5,213.8 171.5,216.5 156,200.6C155.1,200.1 155.2,200.5 155.3,200.7Z" style="fill:rgb(119,110,100);fill-rule:nonzero;"/>
        <path d="M227.3,229C227.3,229 231.1,221.1 223.5,209.2C223.5,209.2 233.5,212.2 237.9,208C237.9,208 241.8,204.9 240.2,200C240.2,200 239,196.4 234.4,195.1C234.4,195.1 228.5,192.8 227.5,191.7C227.5,191.7 235.9,194 248.1,190.8C248.1,190.8 255,189 260,191.8C260,191.8 266.9,195.8 271.2,196C271.2,196 276.5,196.2 277.7,197.3C277.7,197.3 279.8,198.8 278.5,200.2C278.5,200.2 276.7,201.6 277.9,201.9C277.9,201.9 279.4,201.8 279.1,203.2C279.1,203.2 278.2,206.8 264.1,208.5C264.1,208.5 249.2,210 244,212.9C243.9,213 243.8,213 243.7,213.1C242.7,213.4 236.6,216.2 228.3,228.5C228.2,228.4 227.6,229.3 227.3,229Z" style="fill:rgb(160,116,0);fill-rule:nonzero;"/>
        <path d="M298.3,185.8C298.3,185.8 295.6,199.4 286.6,211.5C275.7,226.1 257.2,243 225.4,244C225.4,244 221.6,244.3 223.2,242.5C223.2,242.5 224,241.5 227.4,241.7C227.4,241.7 230.5,241.9 230.5,240.4C230.5,240.4 230.7,239.4 228.6,239.6C228.6,239.6 226.3,239.8 226.3,238.7C226.3,238.7 228.6,229.9 239.2,219.2C239.2,219.2 245.8,212.3 261.1,211.4C261.1,211.4 280.6,210.5 282.2,202.7C282.2,202.7 283.7,197.9 279,195.2C279,195.3 288.6,195 298.3,185.8Z" style="fill:rgb(0,133,202);fill-rule:nonzero;"/>
        <g>
            <circle cx="206.7" cy="188.1" r="2.2" style="fill:white;"/>
            <circle cx="234" cy="233.7" r="2.2" style="fill:white;"/>
            <circle cx="270" cy="198.8" r="1.8" style="fill:white;"/>
            <circle cx="229.6" cy="182.7" r="1.8" style="fill:white;"/>
            <circle cx="160.3" cy="184.1" r="1.8" style="fill:white;"/>
            <circle cx="156.5" cy="151.2" r="2.2" style="fill:white;"/>
            <g transform="matrix(0.1602,-0.9871,0.9871,0.1602,68.1132,376.019)">
                <circle cx="255" cy="148" r="2.4" style="fill:white;"/>
            </g>
            <circle cx="234.3" cy="127.3" r="2.1" style="fill:white;"/>
            <circle cx="257.2" cy="117.7" r="1.3" style="fill:white;"/>
            <circle cx="228.7" cy="109.2" r="1.7" style="fill:white;"/>
            <circle cx="187.7" cy="104.5" r="1.3" style="fill:white;"/>
            <circle cx="292.8" cy="159.1" r="1.5" style="fill:white;"/>
            <circle cx="293.4" cy="163.6" r="1.5" style="fill:white;"/>
        </g>
    </g>
</svg>
